X: 15
T: No_112_Hinata_Dance_Song_(h).krn
N: Derived from No_112_Hinata_Dance_Song_(h).krn
%%abc-version 2.0
%%abcx-abcm2ps-target-version 5.9.1 (29 Sep 2008)
%%abc-creator hum2abc beta
%%abcx-conversion-date 2019/03/15 08:38:45
%%humdrum-veritas 252919612
%%humdrum-veritas-data 1900005219
%%linebreak <none>
%%barnumbers 0
L: 1/8
M: 2/4
K: Bb clef=bass
[K:clef=bass][M:2/4]F,C C3/B,/ ]|:  
B,3G,/F,/ | 
F,C B,3/G,/ | 
F,3F, ||  
[M:3/4]F,/ z/ B, (3(B,/F,)F, F,3/D,/ ||  
[M:2/4]B,,3B,, | 
B,,F, G,3/F,/ | 
F,2z F, ||  
[M:3/4]F,B, (3(B,/F,)F, F,3/D,/ ||  
[M:2/4]B,,3B,, | 
B,,C C3/B,/ :|]  



